static/assets/images/logos/monochrome/auditboard.svg

<svg width="105" height="14" viewBox="0 0 105 14" fill="none" xmlns="http://www.w3.org/2000/svg">
<g clip-path="url(#clip0_107_59)">
<path d="M26.7933 3.46948C26.2845 3.46948 25.8227 3.77536 25.6315 4.24438L23.1846 10.1931H24.5051C24.858 10.1931 25.1727 9.97749 25.2963 9.65118L25.4609 9.22005H28.1227L28.2873 9.65118C28.4109 9.97749 28.7285 10.1931 29.0785 10.1931H30.399L27.9521 4.24438C27.7638 3.77536 27.3021 3.46948 26.7933 3.46948ZM26.0698 7.62945L26.7933 5.73301L27.5168 7.62945H26.0698Z" fill="black"/>
<path d="M85.2181 4.24145C85.027 3.77244 84.5651 3.46655 84.0562 3.46655C83.5478 3.46655 83.086 3.77244 82.8949 4.24145L80.4478 10.1901H81.7686C82.1214 10.1901 82.4359 9.97457 82.5592 9.64827L82.7239 9.21714H85.3856L85.5503 9.64827C85.6742 9.97457 85.9915 10.1901 86.3415 10.1901H87.6623L85.2181 4.24145ZM83.3332 7.62946L84.0562 5.73299L84.7797 7.62946H83.3332Z" fill="black"/>
<path d="M35.5021 10.3067C37.3432 10.3067 38.6402 9.13559 38.6402 7.21874V4.30847C38.6402 3.84528 38.2608 3.46948 37.7932 3.46948H36.8903V7.1255C36.9079 8.01984 36.5491 8.64617 35.5021 8.64617H35.5168C34.4698 8.64617 34.1139 8.01984 34.1286 7.1255V4.30847C34.1286 3.84528 33.7492 3.46948 33.2815 3.46948H32.3787V7.21874C32.3787 9.13559 33.6727 10.3067 35.5168 10.3067H35.5021Z" fill="black"/>
<path d="M43.2692 5.14453H44.5603C45.6574 5.14453 46.1221 5.82329 46.1221 6.82543C46.1221 7.82752 45.6574 8.50629 44.5603 8.50629H43.2692V5.14453ZM41.5339 10.1959H44.8103C46.572 10.1959 47.9132 8.81217 47.9132 6.82836V6.83416C47.9132 4.8503 46.572 3.46655 44.8103 3.46655H41.5339V10.1959Z" fill="black"/>
<path d="M100.356 5.14453H101.647C102.744 5.14453 103.209 5.82329 103.209 6.82543C103.209 7.82752 102.744 8.50629 101.647 8.50629H100.356V5.14453ZM98.6208 10.1959H101.897C103.659 10.1959 105 8.81217 105 6.82836V6.83416C105 4.8503 103.659 3.46655 101.897 3.46655H98.6208V10.1959Z" fill="black"/>
<path d="M52.466 10.2485H51.6514C51.1249 10.2485 50.6985 9.82604 50.6985 9.3046V3.5249H51.5131C52.0396 3.5249 52.466 3.94731 52.466 4.46877V10.2485Z" fill="black"/>
<path d="M60.2982 3.5249H55.1692V4.36681C55.1692 4.83 55.5486 5.2058 56.0162 5.2058H57.2721V10.2485H59.0399V5.2058H61.1428V4.36389C61.1456 3.9007 60.7658 3.5249 60.2982 3.5249Z" fill="black"/>
<path d="M68.1977 6.7935C68.6154 6.56043 69.0389 6.11759 69.0389 5.38058C69.0389 4.21241 68.0772 3.5249 66.9865 3.5249H63.4395V10.2485H67.286C68.3894 10.2485 69.351 9.43278 69.351 8.42484C69.351 7.60917 68.8863 7.01193 68.1977 6.7935ZM65.2095 5.09509H66.7507C67.0978 5.09509 67.2889 5.28736 67.2889 5.6282C67.2889 5.96904 67.0335 6.16131 66.6864 6.16131H65.2095V5.09509ZM66.9217 8.68992H65.2095V7.49556H66.963C67.4186 7.49556 67.5804 7.75772 67.5804 8.09274C67.5804 8.42777 67.3772 8.68992 66.9217 8.68992Z" fill="black"/>
<path d="M78.7833 6.88672C78.7833 8.81229 77.1624 10.3738 75.1657 10.3738C73.1656 10.3738 71.5481 8.81229 71.5481 6.88672C71.5481 4.96111 73.1684 3.39966 75.1657 3.39966C77.1624 3.39966 78.7833 4.96111 78.7833 6.88672ZM75.1629 5.05142C74.145 5.05142 73.3216 5.87292 73.3216 6.88672C73.3216 7.90051 74.145 8.72198 75.1629 8.72198C76.1801 8.72198 77.0041 7.90051 77.0041 6.88672C77.0041 5.87292 76.1801 5.05142 75.1629 5.05142Z" fill="black"/>
<path d="M94.4678 8.2355C94.971 7.97621 95.8294 7.3761 95.8294 5.98941C95.8294 4.40468 94.7237 3.5249 93.2824 3.5249H89.9385V10.2485H91.6678V8.45399H92.5709L93.6152 9.89891C93.7736 10.1203 94.0295 10.2485 94.3031 10.2485H95.9206L94.4678 8.2355ZM93.1413 6.88668H91.6678V5.09509H93.1768C93.9147 5.09509 94.1299 5.49711 94.1299 5.99234C94.1299 6.48469 93.8768 6.88668 93.1413 6.88668Z" fill="black"/>
<path d="M4.50594 6.52193L6.60314 8.617L7.27783 9.29101C6.67796 8.67151 6.30868 7.82784 6.30868 6.89707C6.30868 4.99183 7.8543 3.4493 9.75991 3.4493C10.7306 3.4493 11.6078 3.85088 12.2357 4.4953C12.4305 4.68986 12.9182 5.17706 12.9182 5.17706L15.0138 7.27059C15.4501 7.70643 15.9939 7.9726 16.561 8.07381C17.4709 8.23567 18.4448 7.9695 19.1428 7.27059L19.5199 6.89391L14.5978 1.97837C14.1553 1.54254 13.6536 1.1674 13.1052 0.86388C12.1142 0.314422 10.9737 0 9.75991 0C6.34918 0 3.5181 2.47179 2.95874 5.71874C3.52589 5.81993 4.06967 6.0861 4.50594 6.52193Z" fill="black"/>
<path d="M15.0139 7.27198L12.9183 5.17691L12.2436 4.50293C12.8435 5.12243 13.2127 5.96608 13.2127 6.89685C13.2127 8.80205 11.6671 10.3446 9.76156 10.3446C8.79085 10.3446 7.91362 9.943 7.28568 9.2986C7.09094 9.10403 6.60324 8.61684 6.60324 8.61684L4.50604 6.52172C4.06977 6.08594 3.52599 5.81977 2.95884 5.71859C2.04891 5.55671 1.07509 5.82442 0.377062 6.52172L0 6.89846L4.92206 11.8156C5.36456 12.2514 5.86629 12.6265 6.4147 12.93C7.40566 13.4795 8.5462 13.7939 9.76156 13.7939C13.1722 13.7939 16.0033 11.3221 16.5627 8.07514C15.994 7.97399 15.4502 7.70782 15.0139 7.27198Z" fill="black"/>
</g>
<defs>
<clipPath id="clip0_107_59">
<rect width="105" height="13.7705" fill="white"/>
</clipPath>
</defs>
</svg>

<svg clip-rule="evenodd" fill-rule="evenodd" stroke-linejoin="round" stroke-miterlimit="2" viewBox="0 0 1000 132" xmlns="http://www.w3.org/2000/svg"><g fill-rule="nonzero" transform="scale(9.52381)"><path d="m26.793 3.469c-.508 0-.97.306-1.161.775l-2.447 5.949h1.32c.353 0 .668-.216.791-.542l.165-.431h2.662l.164.431c.124.326.442.542.791.542h1.321l-2.447-5.949c-.188-.469-.65-.775-1.159-.775zm-.723 4.16.723-1.896.724 1.896z"/><path d="m85.218 4.241c-.191-.469-.653-.774-1.162-.774-.508 0-.97.305-1.161.774l-2.447 5.949h1.321c.352 0 .667-.215.79-.542l.165-.431h2.662l.164.431c.124.327.442.542.792.542h1.32zm-1.885 3.388.723-1.896.724 1.896z"/><path d="m35.502 10.307c1.841 0 3.138-1.171 3.138-3.088v-2.911c0-.463-.379-.839-.847-.839h-.903v3.657c.018.894-.341 1.52-1.388 1.52h.015c-1.047 0-1.403-.626-1.388-1.52v-2.818c0-.463-.38-.839-.847-.839h-.903v3.75c0 1.917 1.294 3.088 3.138 3.088z"/><path d="m43.269 5.145h1.291c1.097 0 1.562.678 1.562 1.68 0 1.003-.465 1.681-1.562 1.681h-1.291zm-1.735 5.051h3.276c1.762 0 3.103-1.384 3.103-3.368v.006c0-1.984-1.341-3.367-3.103-3.367h-3.276z"/><path d="m100.356 5.145h1.291c1.097 0 1.562.678 1.562 1.68 0 1.003-.465 1.681-1.562 1.681h-1.291zm-1.735 5.051h3.276c1.762 0 3.103-1.384 3.103-3.368v.006c0-1.984-1.341-3.367-3.103-3.367h-3.276z"/><path d="m52.466 10.249h-.815c-.526 0-.952-.423-.952-.944v-5.78h.814c.527 0 .953.422.953.944z"/><path d="m60.298 3.525h-5.129v.842c0 .463.38.839.847.839h1.256v5.043h1.768v-5.043h2.103v-.842c.003-.463-.377-.839-.845-.839z"/><path d="m68.198 6.794c.417-.234.841-.676.841-1.413 0-1.169-.962-1.856-2.052-1.856h-3.547v6.724h3.846c1.103 0 2.065-.816 2.065-1.824 0-.816-.465-1.413-1.153-1.631zm-2.988-1.699h1.541c.347 0 .538.192.538.533s-.255.533-.603.533h-1.476zm1.712 3.595h-1.712v-1.194h1.753c.456 0 .617.262.617.597s-.203.597-.658.597z"/><path d="m78.783 6.887c0 1.925-1.621 3.487-3.617 3.487-2 0-3.618-1.562-3.618-3.487 0-1.926 1.62-3.487 3.618-3.487 1.996 0 3.617 1.561 3.617 3.487zm-3.62-1.836c-1.018 0-1.841.822-1.841 1.836s.823 1.835 1.841 1.835c1.017 0 1.841-.821 1.841-1.835s-.824-1.836-1.841-1.836z"/><path d="m94.468 8.236c.503-.26 1.361-.86 1.361-2.247 0-1.584-1.105-2.464-2.547-2.464h-3.343v6.724h1.729v-1.795h.903l1.044 1.445c.159.221.415.35.688.35h1.618zm-1.327-1.349h-1.473v-1.792h1.509c.738 0 .953.402.953.897 0 .493-.253.895-.989.895z"/><path d="m4.506 6.522 2.097 2.095.675.674c-.6-.619-.969-1.463-.969-2.394 0-1.905 1.545-3.448 3.451-3.448.971 0 1.848.402 2.476 1.046.195.195.682.682.682.682l2.096 2.094c.436.435.98.702 1.547.803.91.162 1.884-.104 2.582-.803l.377-.377-4.922-4.916c-.443-.435-.944-.811-1.493-1.114-.991-.55-2.131-.864-3.345-.864-3.411 0-6.242 2.472-6.801 5.719.567.101 1.111.367 1.547.803z"/><path d="m15.014 7.272-2.096-2.095-.674-.674c.6.619.969 1.463.969 2.394 0 1.905-1.546 3.448-3.451 3.448-.971 0-1.848-.402-2.476-1.046-.195-.195-.683-.682-.683-.682l-2.097-2.095c-.436-.436-.98-.702-1.547-.803-.91-.162-1.884.105-2.582.803l-.377.376 4.922 4.918c.443.435.944.811 1.493 1.114.991.55 2.131.864 3.347.864 3.41 0 6.241-2.472 6.801-5.719-.569-.101-1.113-.367-1.549-.803z"/></g></svg>
